X:10
T:T208B- The Mountains High
S:Mulholland's 'A Collection of Ancient Irish Airs', 1810
Q:120
L:1/4
M:C
K:G
B/c/|dB{d/}cB/A/|G3/2A/E3/2G/|D3/2E/GA/B/|c3B/c/|dBdB/A/|\
G3/2A/EG/E/|D3/2E/GG|G3||A/B/|BGG/A/ B/c/|ddg/f/ e/d/|\
cB/A/GA/B/|c3B/c/|dBdB/A/|G3/2A/EG/E/|D3/2E/GG|G3||]

